X:1
L:1/8
Q:1/8=200
M:2/2
K:D
""D"" F3 G FEDE | FAAB AFED | d2 (3efg""G"" fdec |""D"" dBAF""A"" BE E2 |""D"" F3 G FEDE | FAAB AFED | 
 d2 (3efg""G"" fdec |1""A"" dBAG""D"" FD D2 :|2""A"" dBAG""D"" FDFA |:""D"" d2 AG FDFA | dfaf""G"" gfeg | 
""D"" fAdf""A"" eAce |""D"" dfed""A"" cA A2 |""G"" BDGB""D"" ADFA | dfaf""G"" gfed |""A"" (3Bcd ec""D"" dBAG |1 
""A"" FGEF""D"" DEFA :|2""A"" FGEG""D"" FDDE |]
